( File created by Lathe4d.php )
( 02-01-2020 23:16 )
G0 Z28
(Current cutter 6мм концевая трёхпёрая по дюралю)
( Cylinder Y[0..48] D[36..17]=R[18..8.5] )
G0 A0 X0 Y3
G1 Z18 F1400
G1 Z15 A10
G1 A370
G1 Y45 A3520
G1 A3880
G1 Z12 A3890
G1 A4250
G1 Y3 A7400
G1 A7760
G1 Z9 A7770
G1 A8130
G1 Y45 A11280
G1 A11640
G1 Z8.5 A11650
G1 A12010
G1 Y3 A15160
G1 A15520
G0 Z28
G0 A15840
G92 A0
( Cylinder Y[0..18] D[17..14.9]=R[8.5..7.45] )
G0 A0 X0 Y3
G1 Z8.5 F1400
G1 Z7.45 A10
G1 A370
G1 Y15 A1270
G1 A1630
G0 Z28
G0 A1800
G92 A0
( Cylinder Y[30..48] D[17..14.9]=R[8.5..7.45] )
G0 A0 X0 Y33
G1 Z8.5 F1400
G1 Z7.45 A10
G1 A370
G1 Y45 A1270
G1 A1630
G0 Z28
G0 A1800
G92 A0
T1
M5      (Spindle stop.)
(MSG, Change tool to Гравёр 60°)
M6      (Tool change.)
M0      (Temporary machine stop.)
M3      (Spindle on clockwise.)
( Thread Y[0..17 by 1.5] D[29.9..27.95]=R[14.95..13.975] )
G0 A-10 X0 Y0
G1 Z14.95 F1400
G1 Z14.85 A0
G1 A360
G92 A0
G1 Y17 A4080
G1 A4450
G1 Z14.75 A4440
G1 A4080
G1 Y0 A0
G1 A-10
G1 Z14.65 A0
G1 A360
G92 A0
G1 Y17 A4080
G1 A4450
G1 Z14.55 A4440
G1 A4080
G1 Y0 A0
G1 A-10
G1 Z14.45 A0
G1 A360
G92 A0
G1 Y17 A4080
G1 A4450
G1 Z14.35 A4440
G1 A4080
G1 Y0 A0
G1 A-10
G1 Z14.25 A0
G1 A360
G92 A0
G1 Y17 A4080
G1 A4450
G1 Z14.15 A4440
G1 A4080
G1 Y0 A0
G1 A-10
G1 Z14.05 A0
G1 A360
G92 A0
G1 Y17 A4080
G1 A4450
G1 Z13.975 A4440
G1 A4080
G1 Y0 A0
G1 A-10
G0 Z28
G0 A-0
G92 A0
( Thread Y[31..48 by 1.5] D[29.9..27.95]=R[14.95..13.975] )
G0 A-10 X0 Y31
G1 Z14.95 F1400
G1 Z14.85 A0
G1 A360
G92 A0
G1 Y48 A4080
G1 A4450
G1 Z14.75 A4440
G1 A4080
G1 Y31 A0
G1 A-10
G1 Z14.65 A0
G1 A360
G92 A0
G1 Y48 A4080
G1 A4450
G1 Z14.55 A4440
G1 A4080
G1 Y31 A0
G1 A-10
G1 Z14.45 A0
G1 A360
G92 A0
G1 Y48 A4080
G1 A4450
G1 Z14.35 A4440
G1 A4080
G1 Y31 A0
G1 A-10
G1 Z14.25 A0
G1 A360
G92 A0
G1 Y48 A4080
G1 A4450
G1 Z14.15 A4440
G1 A4080
G1 Y31 A0
G1 A-10
G1 Z14.05 A0
G1 A360
G92 A0
G1 Y48 A4080
G1 A4450
G1 Z13.975 A4440
G1 A4080
G1 Y31 A0
G1 A-10
G0 Z28
G0 A-0
G92 A0
