( File created by Lathe4d.php )
( 03-01-2020 20:11 )
G00G21G17G90G40G49G80
G71G91.1
S18000M3
G94
G0 Z28
T1
(Current cutter 6mm endmill 3fluite alluminium)
M6      (Tool change.)
( CutRight[15] D[36..0]=R[18..0] )
G0 A0 Y18
G1 Z18 F1400
G1 A2160 Z0
G1 A2520
G0 Z28
G92 A 0
( CutLeft[5] D[36..28]=R[18..14] )
G0 A0 Y2
G1 Z18 F1400
G1 A480 Z14
G1 A840
G0 Z28
G0 A1080
G92 A 0
( Cylinder Y[5..15] D[36..29.9]=R[18..14.95] )
G0 A0 X0 Y8
G1 Z18 F1400
G1 Z15 A10
G1 A370
G1 Y12 A670
G1 A1030
G1 Z14.95 A1040
G1 A1400
G1 Y8 A1700
G1 A2060
G0 Z28
G0 A2160
G92 A 0
T2
M5      (Spindle stop.)
(MSG, Change tool to 3.175mm engraver 60*)
M6      (Tool change.)
M0      (Temporary machine stop.)
M3      (Spindle on clockwise.)
( Thread Y[5..15 by 1.5] D[59.9..57.95]=R[29.95..28.975] )
G0 A-10 X0 Y5
G1 Z29.95 F1400
G1 Z29.85 A0
G1 A360
G1 Y15 A2760
G1 A3130
G1 Z29.75 A3120
G1 A2760
G1 Y5 A360
G1 A-10
G1 Z29.65 A0
G1 A360
G1 Y15 A2760
G1 A3130
G1 Z29.55 A3120
G1 A2760
G1 Y5 A360
G1 A-10
G1 Z29.45 A0
G1 A360
G1 Y15 A2760
G1 A3130
G1 Z29.35 A3120
G1 A2760
G1 Y5 A360
G1 A-10
G1 Z29.25 A0
G1 A360
G1 Y15 A2760
G1 A3130
G1 Z29.15 A3120
G1 A2760
G1 Y5 A360
G1 A-10
G1 Z29.05 A0
G1 A360
G1 Y15 A2760
G1 A3130
G1 Z28.975 A3120
G1 A2760
G1 Y5 A360
G1 A-10
G0 Z28
M09
M30
