( File created by Lathe4d.php )
( 05-01-2020 01:02 )
G00G21G17G90G40G49G80
G71G91.1
S18000M3
G94
G0 Z28
T1
(Current cutter 6mm endmill 3fluite alluminium)
M6      (Tool change.)
( Cylinder Y[0..48] D[36..17]=R[18..8.5] )
G0 A0 X0 Y3
G1 Z18 F1400
G1 Z15 A10
G1 A370
G1 Y45 A3520
G1 A3880
G1 Z12 A3890
G1 A4250
G1 Y3 A7400
G1 A7760
G1 Z9 A7770
G1 A8130
G1 Y45 A11280
G1 A11640
G1 Z8.5 A11650
G1 A12010
G1 Y3 A15160
G1 A15520
G0 Z28
G0 A15840
G92 A 0
( Cylinder Y[0..18] D[17..14.9]=R[8.5..7.45] )
G0 A0 X0 Y3
G1 Z8.5 F1400
G1 Z7.45 A10
G1 A370
G1 Y15 A1270
G1 A1630
G0 Z28
G0 A1800
G92 A 0
( Cylinder Y[30..48] D[17..14.9]=R[8.5..7.45] )
G0 A0 X0 Y33
G1 Z8.5 F1400
G1 Z7.45 A10
G1 A370
G1 Y45 A1270
G1 A1630
G0 Z28
G0 A1800
G92 A 0
( CutRight Y[48] D[36..0]=R[18..0] )
G0 A0 Y51
G1 Z18 F1400
G1 A2160 Z0
G1 A2520
G0 Z28
G92 A 0
T2
M5      (Spindle stop.)
(MSG, Change tool to Гравёр 60°)
M6      (Tool change.)
M0      (Temporary machine stop.)
M3      (Spindle on clockwise.)
( Thread Y[0..17 by 1.5] D[14.9..12.95]=R[7.45..6.475] )
G0 A-10 X0 Y0
G1 Z7.45 F1400
G1 Z7.35 A0
G1 A360
G1 Y17 A4440
G1 A4810
G1 Z7.25 A4800
G1 A4440
G1 Y0 A360
G1 A-10
G1 Z7.15 A0
G1 A360
G1 Y17 A4440
G1 A4810
G1 Z7.05 A4800
G1 A4440
G1 Y0 A360
G1 A-10
G1 Z6.95 A0
G1 A360
G1 Y17 A4440
G1 A4810
G1 Z6.85 A4800
G1 A4440
G1 Y0 A360
G1 A-10
G1 Z6.75 A0
G1 A360
G1 Y17 A4440
G1 A4810
G1 Z6.65 A4800
G1 A4440
G1 Y0 A360
G1 A-10
G1 Z6.55 A0
G1 A360
G1 Y17 A4440
G1 A4810
G1 Z6.475 A4800
G1 A4440
G1 Y0 A360
G1 A-10
G0 Z28
( Thread Y[31..48 by 1.5] D[14.9..12.95]=R[7.45..6.475] )
G0 A-10 X0 Y31
G1 Z7.45 F1400
G1 Z7.35 A0
G1 A360
G1 Y48 A4440
G1 A4810
G1 Z7.25 A4800
G1 A4440
G1 Y31 A360
G1 A-10
G1 Z7.15 A0
G1 A360
G1 Y48 A4440
G1 A4810
G1 Z7.05 A4800
G1 A4440
G1 Y31 A360
G1 A-10
G1 Z6.95 A0
G1 A360
G1 Y48 A4440
G1 A4810
G1 Z6.85 A4800
G1 A4440
G1 Y31 A360
G1 A-10
G1 Z6.75 A0
G1 A360
G1 Y48 A4440
G1 A4810
G1 Z6.65 A4800
G1 A4440
G1 Y31 A360
G1 A-10
G1 Z6.55 A0
G1 A360
G1 Y48 A4440
G1 A4810
G1 Z6.475 A4800
G1 A4440
G1 Y31 A360
G1 A-10
G0 Z28
T1
M5      (Spindle stop.)
(MSG, Change tool to 6mm endmill 3fluite alluminium)
M6      (Tool change.)
M0      (Temporary machine stop.)
M3      (Spindle on clockwise.)
( CutLeft Y[0] D[36..2]=R[18..1] )
G0 A0 Y-3
G1 Z18 F1400
G1 A2040 Z1
G1 A2400
G0 Z28
G0 A2520
G92 A 0
M09
M30
